public/avatar/shoe/144.svg

<svg xmlns:xlink="http://www.w3.org/1999/xlink" height="38.3" width="36.05" xmlns="http://www.w3.org/2000/svg"><use height="17.1" transform="translate(12.75 10.85)" width="19.85" xlink:href="#a"/><defs><g id="a" fill-rule="evenodd"><path d="m-5.5 7.5-.4.65-.9 1.6-.1-.1-.4-.05.85-1.45q.55-.8.75-1.65l.2 1" fill="#c95b09" transform="translate(11.05 4)"/><path d="m1.95-3.15.6-.25 1.55-.35q1.6 0 3.1.6.85.3 1.3 1.25.5 1.05 0 1.8l-1 1.3q.05.5.85 1.25l.4 1.7.05 1-.05.8-.3 1.8q-.5.85-1.15.9l-1.75.05-.6 1.45-1.1 1.25q-.4.5-1.4.85l-4 .75-1.9.1-2.2-.1-1.85-.25q-.7-.1-1.75-.75l-1.15-1.1q-.5-.5-.65-1.3l.15-1.9q.25-1.2.65-1.7L-9 5.1q1.25-.7 1.85-.75l-.05-.65.05-.55.2-1.2Q-5.5.9-5.65.15-6.5-.1-6.3-.9l.25-1.6q0-1.1.4-1.4l1.65.05-.15-.15h1.4l1.3.4 2.75.5.65-.05" transform="translate(11.05 4)"/><path d="m-9.2 10.15-.85-1.05.6.05.9 1 1 1.3-.4.5-.45-.2.25-.3-1.05-1.3" fill="#c95b09" transform="translate(11.05 4)"/><path d="M6.05 8.15Q7.1 8.5 7.7 7.6q.85-1.2.1-3.85l-.6-2.3h.15l.7 2.4q.75 2.55-.2 3.85-.65 1.05-1.65.55l-.15-.1M-9.25 5.7l-.8 1.3q-.7 1-.2 2.6.45 1.6 1.85 2.15l-.15.25q-1.45-.6-1.95-2.3-.45-1.55.25-2.55l.8-1.4q.2-.3.65-.35-.4.1-.45.3m15.1 2.4-.6-.65q-.05 3.05-2.95 4.2l-6.35.75v-.05h.5l-.1-.2q4.1 0 5.85-.7 2.8-1.1 2.85-4.3l.8.95" fill="#5b2e05" transform="translate(11.05 4)"/><path d="m6.3-.6-.2 1.75 1.1.3.6 2.3q.75 2.65-.1 3.85-.6.9-1.7.55l-.05-.05h-.1l-.8-.95q-.05 3.2-2.85 4.3-1.75.7-5.85.7l-.4-.8 1.35-.75 1.2-.85-1.65-.15-1.65-.15-.15-1.3L-5 7.2l-.2-.55-.3.85-.2-1q-.2.85-.75 1.65L-7.3 9.6q-1.4-.5-2.15-.45l-.6-.05.85 1.05 1.05 1.3-.25.3q-1.4-.55-1.85-2.15-.5-1.6.2-2.6l.8-1.3q.05-.2.45-.3l1.3-.4q.8-.25.85-.65Q-6.2 1.85-5 .7q.2-.1-.4-.7l.15.1 1.35-.25q.4-.2.5-.85.4-1.4 1.9-.9.55.15 1.25 2.3.5 1.45 2.5.95L3.45.5V-.6q-.15-.65.1-.9l.95-.25Q6.45-1.9 6.3-.6" fill="#5b2e05" transform="translate(11.05 4)"/><path d="m-5.2 6.65.2.55.05.95.15 1.3 1.65.15 1.65.15-1.2.85-1.35.75.4.8.1.2h-.5l-3.4-.2-.5-.2.4-.5-1-1.3-.9-1q.75-.05 2.15.45l.4.05.1.1.9-1.6.4-.65.3-.85" fill="#f47811" transform="translate(11.05 4)"/><path d="M7.1-.05q-.1.4.25 1.25l.2.5v.15l.05.05q-.4.45-1.15.25-.85-.15-1-.75L5.7.15l-.75-.9Q4.45-.8 4.45.4L4 1.7q-.45.5-1.7.5-1.1 0-2.35-.55l-.75-.5-.1-.4-.15-.35-.25-1.25q-.75-.65-1.2.25L-3.05.6q-.6.5-1.35.35-.75-.05-1.05-.6l-.3-.5.1-.45.35-.55.4-.7q.4-.5 1.35-.5l2.15.1 5.15.45h1.6l1.6.55.35.5-.2.7" fill="#3a1b02" transform="translate(11.05 4)"/><path d="m4.5-1.75-.95.25q-.25.25-.1.9V.5l-1.2.85q-2 .5-2.5-.95-.7-2.15-1.25-2.3-1.5-.5-1.9.9-.1.65-.5.85L-5.25.1-5.4 0q-.4-.4-.15-.55.15-.1 0-1.45-.25-1.3.15-1.4l4.1.55 3.75.35q3.9-1.55 5.4 1.15L7 .75l.2.7-1.1-.3.2-1.75q.15-1.3-1.8-1.15" fill="#c95b09" transform="translate(11.05 4)"/><path d="m.05 8 .15.7-.45-.7q-.4-.5-1.15-.9l-.8-.4-1.45-.45-.25-.1Q-3.95 6-3.5 6l1.35.35 1.5.55.4.35.3.75" fill="#3a1b02" transform="translate(11.05 4)"/><path d="m.6 3.2 1.35.4.65.05q.6.05.25.5-.15.3-.65.3L-1.65 3.2l-2-.3q-.55 0-.4.3l.8.5 1.6.45 1.35.35q1 .25 2 .9l.5.7.05.5q-.25.6-1.05 0L0 5.45q-1-.7-1.95-.75l-2.8-.5q-1.4-.35-1.05-1.5l.35-.8q.3-.25 1-.25l2.65.55 2.4 1M5.95 2l.65.15q.35.2.35.75v.7l.25.4.35 1.95Q7.7 7.4 6.6 7.4q-.85 0-.85-.75l.3-.45.5-.95v-1l-.2-.85L6 2.65q-.4-.45-.05-.7V2" fill="#89450e" transform="translate(11.05 4)"/><path d="M-3.55 2.1v-.15q.15.5-.95.65l.05.65q0 .45-.5.15-1.3-.95-.05-1.25l.75-.15h.35l.35.1m10.3 4.05L6.6 6.1l.45.1q.25.15.15.45l-.45.6-.55-.15.15-.45.4-.5" fill="#ad5b1e" transform="translate(11.05 4)"/><path d="M4.7 7.4q.65.3-.65 2.25-.8 1.1-1.6 1.55L1 11.7l-3.55.3-.5-.15q-.35-.45.1-.6l.8-.05 1.1-.2 2.55-.6q1-.45 1.95-.95l1-.95q.55-.8.25-1v-.1M-6.9 4.5l.1.1 1.15.3q1.1.35 1.2.75l-.95-.25-.9-.25-.45-.05-.45-.15v-.2l.3-.25" fill="#3a1b02" transform="translate(11.05 4)"/></g></defs></svg>

<?xml version="1.0" encoding="UTF-8" standalone="no"?>
<svg xmlns:xlink="http://www.w3.org/1999/xlink" height="38.3px" width="36.05px" xmlns="http://www.w3.org/2000/svg">
  <g transform="matrix(1.0, 0.0, 0.0, 1.0, 23.8, 14.85)">
    <use height="17.1" transform="matrix(1.0, 0.0, 0.0, 1.0, -11.05, -4.0)" width="19.85" xlink:href="#shape0"/>
  </g>
  <defs>
    <g id="shape0" transform="matrix(1.0, 0.0, 0.0, 1.0, 11.05, 4.0)">
      <path d="M-5.5 7.5 L-5.9 8.15 -6.8 9.75 -6.9 9.65 -7.3 9.6 -6.45 8.15 Q-5.9 7.35 -5.7 6.5 L-5.5 7.5" fill="#c95b09" fill-rule="evenodd" stroke="none"/>
      <path d="M1.95 -3.15 L2.55 -3.4 4.1 -3.75 Q5.7 -3.75 7.2 -3.15 8.05 -2.85 8.5 -1.9 9.0 -0.85 8.5 -0.1 L7.5 1.2 Q7.55 1.7 8.35 2.45 L8.75 4.15 8.8 5.15 8.75 5.95 8.45 7.75 Q7.95 8.6 7.3 8.65 L5.55 8.7 4.95 10.15 3.85 11.4 Q3.45 11.9 2.45 12.25 L-1.55 13.0 -3.45 13.1 -5.65 13.0 -7.5 12.75 Q-8.2 12.65 -9.25 12.0 L-10.4 10.9 Q-10.9 10.4 -11.05 9.6 L-10.9 7.7 Q-10.65 6.5 -10.25 6.0 L-9.0 5.1 Q-7.75 4.4 -7.15 4.35 L-7.2 3.7 -7.15 3.15 -6.95 1.95 Q-5.5 0.9 -5.65 0.15 -6.5 -0.1 -6.3 -0.9 L-6.05 -2.5 Q-6.05 -3.6 -5.65 -3.9 L-4.0 -3.85 -4.15 -4.0 -2.75 -4.0 -1.45 -3.6 1.3 -3.1 1.95 -3.15" fill="#000000" fill-rule="evenodd" stroke="none"/>
      <path d="M-9.2 10.15 L-10.05 9.1 -9.45 9.15 -8.55 10.15 -7.55 11.45 -7.95 11.95 -8.4 11.75 -8.15 11.45 -9.2 10.15" fill="#c95b09" fill-rule="evenodd" stroke="none"/>
      <path d="M6.05 8.15 Q7.1 8.5 7.7 7.6 8.55 6.4 7.8 3.75 L7.2 1.45 7.35 1.45 8.05 3.85 Q8.8 6.4 7.85 7.7 7.2 8.75 6.2 8.25 L6.05 8.15" fill="#5b2e05" fill-rule="evenodd" stroke="none"/>
      <path d="M-9.25 5.7 L-10.05 7.0 Q-10.75 8.0 -10.25 9.6 -9.8 11.2 -8.4 11.75 L-8.55 12.0 Q-10.0 11.4 -10.5 9.7 -10.95 8.15 -10.25 7.15 L-9.45 5.75 Q-9.25 5.45 -8.8 5.4 -9.2 5.5 -9.25 5.7" fill="#5b2e05" fill-rule="evenodd" stroke="none"/>
      <path d="M5.85 8.1 L5.25 7.45 Q5.2 10.5 2.3 11.65 L-4.05 12.4 -4.05 12.35 -3.55 12.35 -3.65 12.15 Q0.45 12.15 2.2 11.45 5.0 10.35 5.05 7.15 L5.85 8.1" fill="#5b2e05" fill-rule="evenodd" stroke="none"/>
      <path d="M6.3 -0.6 L6.1 1.15 7.2 1.45 7.8 3.75 Q8.55 6.4 7.7 7.6 7.1 8.5 6.0 8.15 L5.95 8.1 5.85 8.1 5.05 7.15 Q5.0 10.35 2.2 11.45 0.45 12.15 -3.65 12.15 L-4.05 11.35 -2.7 10.6 -1.5 9.75 -3.15 9.6 -4.8 9.45 -4.95 8.15 -5.0 7.2 -5.2 6.65 -5.5 7.5 -5.7 6.5 Q-5.9 7.35 -6.45 8.15 L-7.3 9.6 Q-8.7 9.1 -9.45 9.15 L-10.05 9.1 -9.2 10.15 -8.15 11.45 -8.4 11.75 Q-9.8 11.2 -10.25 9.6 -10.75 8.0 -10.05 7.0 L-9.25 5.7 Q-9.2 5.5 -8.8 5.4 L-7.5 5.0 Q-6.7 4.75 -6.65 4.35 -6.2 1.85 -5.0 0.7 -4.8 0.6 -5.4 0.0 L-5.25 0.1 -3.9 -0.15 Q-3.5 -0.35 -3.4 -1.0 -3.0 -2.4 -1.5 -1.9 -0.95 -1.75 -0.25 0.4 0.25 1.85 2.25 1.35 L3.45 0.5 3.45 -0.6 Q3.3 -1.25 3.55 -1.5 L4.5 -1.75 Q6.45 -1.9 6.3 -0.6" fill="#5b2e05" fill-rule="evenodd" stroke="none"/>
      <path d="M-5.2 6.65 L-5.0 7.2 -4.95 8.15 -4.8 9.45 -3.15 9.6 -1.5 9.75 -2.7 10.6 -4.05 11.35 -3.65 12.15 -3.55 12.35 -4.05 12.35 -7.45 12.15 -7.95 11.95 -7.55 11.45 -8.55 10.15 -9.45 9.15 Q-8.7 9.1 -7.3 9.6 L-6.9 9.65 -6.8 9.75 -5.9 8.15 -5.5 7.5 -5.2 6.65" fill="#f47811" fill-rule="evenodd" stroke="none"/>
      <path d="M7.1 -0.05 Q7.0 0.35 7.35 1.2 L7.55 1.7 7.55 1.85 7.6 1.9 Q7.2 2.35 6.45 2.15 5.6 2.0 5.45 1.4 L5.7 0.15 4.95 -0.75 Q4.45 -0.8 4.45 0.4 L4.0 1.7 Q3.55 2.2 2.3 2.2 1.2 2.2 -0.05 1.65 L-0.8 1.15 -0.9 0.75 -1.05 0.4 -1.3 -0.85 Q-2.05 -1.5 -2.5 -0.6 L-3.05 0.6 Q-3.65 1.1 -4.4 0.95 -5.15 0.9 -5.45 0.35 L-5.75 -0.15 -5.65 -0.6 -5.3 -1.15 -4.9 -1.85 Q-4.5 -2.35 -3.55 -2.35 L-1.4 -2.25 3.75 -1.8 5.35 -1.8 6.95 -1.25 7.3 -0.75 7.1 -0.05" fill="#3a1b02" fill-rule="evenodd" stroke="none"/>
      <path d="M4.5 -1.75 L3.55 -1.5 Q3.3 -1.25 3.45 -0.6 L3.45 0.5 2.25 1.35 Q0.25 1.85 -0.25 0.4 -0.95 -1.75 -1.5 -1.9 -3.0 -2.4 -3.4 -1.0 -3.5 -0.35 -3.9 -0.15 L-5.25 0.1 -5.4 0.0 Q-5.8 -0.4 -5.55 -0.55 -5.4 -0.65 -5.55 -2.0 -5.8 -3.3 -5.4 -3.4 L-1.3 -2.85 2.45 -2.5 Q6.35 -4.05 7.85 -1.35 L7.0 0.75 7.2 1.45 6.1 1.15 6.3 -0.6 Q6.45 -1.9 4.5 -1.75" fill="#c95b09" fill-rule="evenodd" stroke="none"/>
      <path d="M0.05 8.0 L0.2 8.7 -0.25 8.0 Q-0.65 7.5 -1.4 7.1 L-2.2 6.7 -3.65 6.25 -3.9 6.15 Q-3.95 6.0 -3.5 6.0 L-2.15 6.35 -0.65 6.9 -0.25 7.25 0.05 8.0" fill="#3a1b02" fill-rule="evenodd" stroke="none"/>
      <path d="M0.6 3.2 L1.95 3.6 2.6 3.65 Q3.2 3.7 2.85 4.15 2.7 4.45 2.2 4.45 L-1.65 3.2 -3.65 2.9 Q-4.2 2.9 -4.05 3.2 L-3.25 3.7 -1.65 4.15 -0.3 4.5 Q0.7 4.75 1.7 5.4 L2.2 6.1 2.25 6.6 Q2.0 7.2 1.2 6.6 L0.0 5.45 Q-1.0 4.75 -1.95 4.7 L-4.75 4.2 Q-6.15 3.85 -5.8 2.7 L-5.45 1.9 Q-5.15 1.65 -4.45 1.65 L-1.8 2.2 0.6 3.2" fill="#89450e" fill-rule="evenodd" stroke="none"/>
      <path d="M5.95 2.0 L6.6 2.15 Q6.95 2.35 6.95 2.9 L6.95 3.6 7.2 4.0 7.55 5.95 Q7.7 7.4 6.6 7.4 5.75 7.4 5.75 6.65 L6.05 6.2 6.55 5.25 6.55 4.25 6.35 3.4 6.0 2.65 Q5.6 2.2 5.95 1.95 L5.95 2.0" fill="#89450e" fill-rule="evenodd" stroke="none"/>
      <path d="M-3.55 2.1 L-3.55 1.95 Q-3.4 2.45 -4.5 2.6 L-4.45 3.25 Q-4.45 3.7 -4.95 3.4 -6.25 2.45 -5.0 2.15 L-4.25 2.0 -3.9 2.0 -3.55 2.1" fill="#ad5b1e" fill-rule="evenodd" stroke="none"/>
      <path d="M6.75 6.15 L6.6 6.1 7.05 6.2 Q7.3 6.35 7.2 6.65 L6.75 7.25 6.2 7.1 6.35 6.65 6.75 6.15" fill="#ad5b1e" fill-rule="evenodd" stroke="none"/>
      <path d="M4.7 7.4 Q5.35 7.7 4.05 9.65 3.25 10.75 2.45 11.2 L1.0 11.7 -2.55 12.0 -3.05 11.85 Q-3.4 11.4 -2.95 11.25 L-2.15 11.2 -1.05 11.0 1.5 10.4 Q2.5 9.95 3.45 9.45 L4.45 8.5 Q5.0 7.7 4.7 7.5 L4.7 7.4" fill="#3a1b02" fill-rule="evenodd" stroke="none"/>
      <path d="M-6.9 4.5 L-6.8 4.6 -5.65 4.9 Q-4.55 5.25 -4.45 5.65 L-5.4 5.4 -6.3 5.15 -6.75 5.1 -7.2 4.95 -7.2 4.75 -6.9 4.5" fill="#3a1b02" fill-rule="evenodd" stroke="none"/>
    </g>
  </defs>
</svg>
